SF_Symbols/paperplane.svg

<?xml version="1.0" encoding="UTF-8"?>
<svg xmlns="http://www.w3.org/2000/svg" xmlns:xlink="http://www.w3.org/1999/xlink" width="24" height="24" viewBox="0 0 24 24" version="1.1">
<g id="surface1">
<path style=" stroke:none;fill-rule:nonzero;fill:rgb(100%,100%,100%);fill-opacity:1;" d="M 14.394531 24 C 14.789062 24 15.132812 23.84375 15.417969 23.527344 C 15.707031 23.210938 15.953125 22.785156 16.15625 22.257812 L 23.382812 3.386719 C 23.476562 3.128906 23.550781 2.890625 23.601562 2.667969 C 23.660156 2.449219 23.691406 2.242188 23.691406 2.050781 C 23.691406 1.691406 23.589844 1.40625 23.382812 1.203125 C 23.175781 0.996094 22.894531 0.894531 22.53125 0.894531 C 22.347656 0.894531 22.144531 0.921875 21.914062 0.980469 C 21.695312 1.03125 21.457031 1.105469 21.199219 1.203125 L 2.226562 8.46875 C 1.765625 8.648438 1.375 8.878906 1.058594 9.164062 C 0.742188 9.453125 0.585938 9.792969 0.585938 10.191406 C 0.585938 10.699219 0.757812 11.066406 1.101562 11.292969 C 1.449219 11.515625 1.886719 11.707031 2.414062 11.867188 L 10.378906 14.207031 L 12.695312 22.070312 C 12.855469 22.621094 13.050781 23.082031 13.28125 23.449219 C 13.507812 23.816406 13.878906 24 14.394531 24 Z M 10.875 12.53125 L 3.265625 10.203125 C 3.175781 10.179688 3.113281 10.15625 3.078125 10.125 C 3.046875 10.09375 3.03125 10.0625 3.03125 10.027344 C 3.03125 9.988281 3.046875 9.957031 3.078125 9.925781 C 3.105469 9.890625 3.160156 9.855469 3.242188 9.828125 L 18.15625 4.179688 C 18.59375 4.011719 19.027344 3.828125 19.445312 3.628906 C 19.871094 3.421875 20.289062 3.222656 20.703125 3.03125 C 20.335938 3.328125 19.945312 3.644531 19.53125 3.980469 C 19.121094 4.320312 18.765625 4.640625 18.464844 4.941406 Z M 14.570312 21.574219 C 14.527344 21.574219 14.488281 21.550781 14.460938 21.507812 C 14.4375 21.46875 14.410156 21.40625 14.382812 21.320312 L 12.054688 13.710938 L 19.644531 6.121094 C 19.945312 5.820312 20.265625 5.460938 20.601562 5.039062 C 20.949219 4.621094 21.269531 4.222656 21.5625 3.847656 C 21.371094 4.269531 21.171875 4.691406 20.96875 5.117188 C 20.761719 5.542969 20.574219 5.980469 20.40625 6.429688 L 14.757812 21.34375 C 14.726562 21.421875 14.699219 21.480469 14.667969 21.519531 C 14.640625 21.554688 14.605469 21.574219 14.570312 21.574219 Z M 14.570312 21.574219 "/>
</g>
</svg>

<svg xmlns="http://www.w3.org/2000/svg" width="24" height="24"><path style="stroke:none;fill-rule:nonzero;fill:#fff;fill-opacity:1" d="M14.395 24c.394 0 .738-.156 1.023-.473.289-.316.535-.742.738-1.27l7.227-18.87c.094-.258.168-.496.219-.719.058-.219.09-.426.09-.617 0-.36-.102-.645-.31-.848-.206-.207-.487-.308-.85-.308-.184 0-.387.027-.618.085-.242.06-.48.133-.715.223L2.227 8.47c-.461.18-.852.41-1.168.695-.317.29-.473.629-.473 1.027 0 .508.172.875.516 1.102.347.223.785.414 1.312.574l7.965 2.34 2.316 7.863c.16.551.356 1.012.586 1.38.227.366.598.55 1.114.55Zm-3.52-11.469-7.61-2.328a.468.468 0 0 1-.187-.078c-.031-.031-.047-.063-.047-.098 0-.039.016-.07.047-.101a.337.337 0 0 1 .164-.098L18.156 4.18c.438-.168.871-.352 1.29-.551.425-.207.843-.406 1.257-.598l-1.172.95c-.41.34-.765.66-1.066.96Zm3.695 9.043c-.043 0-.082-.023-.11-.066a.792.792 0 0 1-.077-.188l-2.328-7.61 7.59-7.589c.3-.3.62-.66.957-1.082.347-.418.668-.816.96-1.191-.19.422-.39.843-.593 1.27-.207.425-.395.862-.563 1.312l-5.648 14.914a.747.747 0 0 1-.09.176c-.027.035-.063.054-.098.054Zm0 0"/></svg>
